synths/sETHBTC.svg

<svg width="42" height="42" viewBox="0 0 42 42" fill="none" xmlns="http://www.w3.org/2000/svg">
<g clip-path="url(#clip0_7277_57928)">
<mask id="mask0_7277_57928" style="mask-type:alpha" maskUnits="userSpaceOnUse" x="0" y="0" width="42" height="42">
<circle cx="21" cy="21" r="21" fill="url(#paint0_linear_7277_57928)"/>
</mask>
<g mask="url(#mask0_7277_57928)">
<circle cx="21" cy="21" r="21" fill="#34EDB3"/>
<circle cx="21" cy="21" r="18.2" fill="white"/>
</g>
<circle cx="21" cy="21" r="16.1" fill="#06061B"/>
<path d="M4.73239 21C4.73239 29.9844 12.0156 37.2676 21 37.2676V4.73242C12.0156 4.73242 4.73239 12.0157 4.73239 21Z" fill="#627EEA"/>
<path d="M21 37.2676C29.9844 37.2676 37.2676 29.9844 37.2676 21C37.2676 12.0157 29.9844 4.73242 21 4.73242V37.2676Z" fill="#F7931A"/>
<path d="M33.3765 18.1261C33.2235 16.487 31.8061 15.9356 30.0162 15.7762L30.0224 13.5025L28.6358 13.5011L28.6292 15.7148C28.2647 15.7137 27.8927 15.7208 27.5213 15.7277L27.5284 13.4995L26.1416 13.4973L26.1352 15.7702C25.8348 15.7756 25.5395 15.7814 25.252 15.7804L25.2518 15.7732L23.3385 15.7699L23.3346 17.2478C23.3346 17.2478 24.3594 17.2298 24.3424 17.2484C24.9042 17.2496 25.0857 17.5752 25.1384 17.8565L25.1317 20.4463C25.1702 20.4464 25.2204 20.4484 25.2784 20.4557L25.1316 20.4559L25.1215 24.0842C25.096 24.2601 24.9914 24.5411 24.5983 24.5414C24.6166 24.5569 23.5904 24.5401 23.5904 24.5401L23.3102 26.1918L25.1159 26.1944C25.4515 26.1955 25.7819 26.2019 26.1058 26.2043L26.1003 28.5033L27.4861 28.5049L27.4923 26.2313C27.8729 26.2389 28.2411 26.2423 28.6007 26.2431L28.5938 28.5073L29.9804 28.5087L29.9871 26.2142C32.3199 26.0842 33.9535 25.5006 34.1622 23.3161C34.331 21.5576 33.5037 20.7708 32.1807 20.452C32.9866 20.0449 33.4908 19.3259 33.3765 18.1261V18.1261ZM31.4217 23.0396C31.4187 24.758 28.4692 24.5579 27.5288 24.5574L27.5383 21.511C28.479 21.513 31.4274 21.2477 31.4217 23.0396ZM30.7887 18.7406C30.7844 20.3042 28.3251 20.1173 27.5426 20.1163L27.5502 17.3543C28.3326 17.3554 30.7934 17.1098 30.7887 18.7406Z" fill="white"/>
<path d="M13.1971 13.5735V19.036L17.8141 21.0991L13.1971 13.5735Z" fill="white" fill-opacity="0.602"/>
<path d="M13.1971 13.5735L8.57947 21.0991L13.1971 19.036V13.5735Z" fill="white"/>
<path d="M13.1971 24.639V28.3507L17.8172 21.9589L13.1971 24.639Z" fill="white" fill-opacity="0.602"/>
<path d="M13.1971 28.3507V24.6384L8.57947 21.9589L13.1971 28.3507Z" fill="white"/>
<path d="M13.1971 23.7799L17.8141 21.0991L13.1971 19.0372V23.7799Z" fill="white" fill-opacity="0.2"/>
<path d="M8.57947 21.0991L13.1971 23.7799V19.0372L8.57947 21.0991Z" fill="white" fill-opacity="0.602"/>
</g>
<defs>
<linearGradient id="paint0_linear_7277_57928" x1="21" y1="0" x2="21" y2="61.4091" gradientUnits="userSpaceOnUse">
<stop stop-color="#08021E"/>
<stop offset="1" stop-color="#1F0777"/>
</linearGradient>
<clipPath id="clip0_7277_57928">
<rect width="42" height="42" fill="white"/>
</clipPath>
</defs>
</svg>

<svg xmlns="http://www.w3.org/2000/svg" width="42" height="42" fill="none"><g clip-path="url(#a)"><mask id="c" width="42" height="42" x="0" y="0" maskUnits="userSpaceOnUse" style="mask-type:alpha"><circle cx="21" cy="21" r="21" fill="url(#b)"/></mask><g mask="url(#c)"><circle cx="21" cy="21" r="21" fill="#34EDB3"/><circle cx="21" cy="21" r="18.2" fill="#fff"/></g><circle cx="21" cy="21" r="16.1" fill="#06061B"/><path fill="#627EEA" d="M4.732 21c0 8.984 7.284 16.268 16.268 16.268V4.732C12.016 4.732 4.732 12.016 4.732 21Z"/><path fill="#F7931A" d="M21 37.268c8.984 0 16.268-7.284 16.268-16.268 0-8.984-7.284-16.268-16.268-16.268v32.536Z"/><path fill="#fff" d="M33.377 18.126c-.154-1.639-1.57-2.19-3.36-2.35l.005-2.274h-1.386l-.007 2.213c-.364-.001-.736.006-1.108.013l.007-2.229-1.386-.002-.007 2.273c-.3.006-.596.011-.883.01v-.007l-1.913-.003-.004 1.478s1.024-.018 1.007 0c.562.002.744.327.796.608l-.006 2.59c.038 0 .088.002.146.01h-.146l-.01 3.628c-.026.176-.13.457-.524.457.019.016-1.008 0-1.008 0l-.28 1.65 1.806.003c.335.002.666.008.99.01l-.006 2.3h1.386l.006-2.273c.38.008.75.011 1.109.012l-.007 2.264 1.386.002.007-2.295c2.333-.13 3.966-.713 4.175-2.898.169-1.758-.658-2.545-1.981-2.864.806-.407 1.31-1.126 1.196-2.326Zm-1.955 4.914c-.003 1.718-2.953 1.518-3.893 1.517l.01-3.046c.94.002 3.888-.263 3.883 1.529Zm-.633-4.3c-.005 1.564-2.464 1.377-3.246 1.376l.007-2.762c.783.001 3.243-.244 3.239 1.387Z"/><path fill="#fff" fill-opacity=".602" d="M13.197 13.573v5.463l4.617 2.063-4.617-7.526Z"/><path fill="#fff" d="M13.197 13.573 8.58 21.1l4.618-2.063v-5.463Z"/><path fill="#fff" fill-opacity=".602" d="M13.197 24.639v3.712l4.62-6.392-4.62 2.68Z"/><path fill="#fff" d="M13.197 28.35v-3.712l-4.618-2.68 4.618 6.393Z"/><path fill="#fff" fill-opacity=".2" d="m13.197 23.78 4.617-2.68-4.617-2.063v4.743Z"/><path fill="#fff" fill-opacity=".602" d="m8.58 21.1 4.617 2.68v-4.743L8.58 21.1Z"/></g><defs><linearGradient id="b" x1="21" x2="21" y1="0" y2="61.409" gradientUnits="userSpaceOnUse"><stop stop-color="#08021E"/><stop offset="1" stop-color="#1F0777"/></linearGradient><clipPath id="a"><path fill="#fff" d="M0 0h42v42H0z"/></clipPath></defs></svg>
